svg/fluentui-system-icons/ic_fluent_tetris_app_28_regular.svg

<svg width="28" height="28" viewBox="0 0 28 28" fill="none" xmlns="http://www.w3.org/2000/svg">
<path d="M10.25 2C9.00736 2 8 3.00736 8 4.25V7.25C7.9998 7.66404 7.66409 8 7.25 8H4.25C3.00736 8 2 9.00736 2 10.25V13.25C2 14.4926 3.00736 15.5 4.25 15.5H13.25C14.4926 15.5 15.5 14.4926 15.5 13.25V10.25C15.5 9.83579 15.8358 9.5 16.25 9.5H19.25C20.4926 9.5 21.5 8.49264 21.5 7.25V4.25C21.5 3.00736 20.4926 2 19.25 2H10.25ZM19.25 8H15.5L15.5 3.5H19.25C19.6642 3.5 20 3.83579 20 4.25V7.25C20 7.66421 19.6642 8 19.25 8ZM14 8H9.5V4.25C9.5 3.83579 9.83579 3.5 10.25 3.5L14 3.5L14 8ZM8 9.5L8 14H4.25C3.83579 14 3.5 13.6642 3.5 13.25V10.25C3.5 9.83579 3.83579 9.5 4.25 9.5H8ZM9.5 9.5H14V13.25C14 13.6642 13.6642 14 13.25 14H9.5L9.5 9.5ZM20.75 12.5H23.75C24.9926 12.5 26 13.5074 26 14.75V23.75C26 24.9926 24.9926 26 23.75 26H7.75C6.50736 26 5.5 24.9926 5.5 23.75V20.75C5.5 19.5074 6.50736 18.5 7.75 18.5H17.75C18.1642 18.5 18.5 18.1642 18.5 17.75V14.75C18.5 13.5074 19.5074 12.5 20.75 12.5ZM18.5 24.5V20H13.5V24.5H18.5ZM24.5 20H20V24.5H23.75C24.1642 24.5 24.5 24.1642 24.5 23.75V20ZM20 18.5H24.5V14.75C24.5 14.3358 24.1642 14 23.75 14H20.75C20.3358 14 20 14.3358 20 14.75V18.5ZM12 20H7.75C7.33579 20 7 20.3358 7 20.75V23.75C7 24.1642 7.33579 24.5 7.75 24.5H12V20Z" fill="#212121"/>
</svg>

<svg xmlns="http://www.w3.org/2000/svg" width="28" height="28"><path d="M10.25 2A2.25 2.25 0 0 0 8 4.25v3a.75.75 0 0 1-.75.75h-3A2.25 2.25 0 0 0 2 10.25v3a2.25 2.25 0 0 0 2.25 2.25h9a2.25 2.25 0 0 0 2.25-2.25v-3a.75.75 0 0 1 .75-.75h3a2.25 2.25 0 0 0 2.25-2.25v-3A2.25 2.25 0 0 0 19.25 2h-9Zm9 6H15.5V3.5h3.75a.75.75 0 0 1 .75.75v3a.75.75 0 0 1-.75.75ZM14 8H9.5V4.25a.75.75 0 0 1 .75-.75H14V8ZM8 9.5V14H4.25a.75.75 0 0 1-.75-.75v-3a.75.75 0 0 1 .75-.75H8Zm1.5 0H14v3.75a.75.75 0 0 1-.75.75H9.5V9.5Zm11.25 3h3A2.25 2.25 0 0 1 26 14.75v9A2.25 2.25 0 0 1 23.75 26h-16a2.25 2.25 0 0 1-2.25-2.25v-3a2.25 2.25 0 0 1 2.25-2.25h10a.75.75 0 0 0 .75-.75v-3a2.25 2.25 0 0 1 2.25-2.25Zm-2.25 12V20h-5v4.5h5Zm6-4.5H20v4.5h3.75a.75.75 0 0 0 .75-.75V20ZM20 18.5h4.5v-3.75a.75.75 0 0 0-.75-.75h-3a.75.75 0 0 0-.75.75v3.75ZM12 20H7.75a.75.75 0 0 0-.75.75v3c0 .414.336.75.75.75H12V20Z"/></svg>
